X: 1
T: P.M. Cunningham's Odd Dance
M: 6/8
L: 1/8
R: jig
K: Edor
E3 FED | EFA B2 A | Bdd BAF | FEF AFD | 
E3 FED | EFA B2 A | Bdd BAF |1 AFE E2 D :|2 AFE E3 ||
ABA d2 c | Bed B2 A | Bed B2 A | FEF AFD | 
ABA d2 c | Bed B2 A | FEF AFD | EFE E3 |
ABA d2 c | Bed B2 A | Bed B2 A | FEF AFD | 
E3 FED | EFA B2 A | Bdd BAF | AFE E3 |
